Dominus_Dark_Funeral/scalable/apps/gnome-do.svg

<svg xmlns="http://www.w3.org/2000/svg" xmlns:xlink="http://www.w3.org/1999/xlink" width="48" height="48" viewBox="0 0 12.7 12.7"><defs><linearGradient id="a"><stop stop-color="#4d4d4d" offset="0"/><stop stop-color="#ccc" offset="1"/></linearGradient><radialGradient id="d" cx="6.35" cy="289.59" r="3.85" gradientTransform="matrix(.93136 0 0 .92638 .44 21.32)" gradientUnits="userSpaceOnUse" xlink:href="#a"/><radialGradient id="f" cx="6.35" cy="289.56" r="1.28" gradientTransform="matrix(.93136 0 0 .93135 .44 19.88)" gradientUnits="userSpaceOnUse" xlink:href="#a"/><radialGradient id="b" cx="12.01" cy="13.2" r="20" gradientTransform="matrix(0 .55623 -.80234 0 13.13 280.29)" gradientUnits="userSpaceOnUse"><stop stop-color="#de87cd" offset="0"/><stop stop-color="#a02c89" offset=".26"/><stop stop-color="#c837ab" offset=".7"/><stop stop-color="#de87cd" offset="1"/></radialGradient><radialGradient id="e" cx="6.35" cy="289.56" r="2.55" gradientTransform="translate(.44 19.88) scale(.93136)" gradientUnits="userSpaceOnUse"><stop stop-color="#e6e6e6" offset="0"/><stop stop-color="#e6e6e6" stop-opacity="0" offset="1"/></radialGradient><radialGradient id="g" cx="6.52" cy="287.7" r="3.85" gradientTransform="matrix(1.6127 .35322 -.22426 1.0239 62 -8.49)" gradientUnits="userSpaceOnUse"><stop stop-color="#f5ffff" offset="0"/><stop stop-color="#f3ffff" stop-opacity="0" offset="1"/></radialGradient><filter id="c" x="-.17" y="-.17" width="1.34" height="1.34" color-interpolation-filters="sRGB"><feGaussianBlur stdDeviation=".54"/></filter></defs><path d="M6.35 284.39a9 9 0 0 0-2.08.22 5.82 5.82 0 0 0-1.6.66 3.66 3.66 0 0 0-1.24 1.36c-.14.27-.25.56-.32.88a4.68 4.68 0 0 0 .14 2.52c.15.52.36 1.05.58 1.53.44.97.95 1.8 1.18 2.16.54.85 1.13 1.61 1.65 2.16.34.35.64.6.92.78s.53.25.77.25.5-.08.77-.25c.28-.17.58-.43.92-.78.52-.55 1.11-1.31 1.65-2.16.23-.37.74-1.19 1.18-2.16.22-.48.43-1 .58-1.53a4.61 4.61 0 0 0 .14-2.52 3.73 3.73 0 0 0-.84-1.63c-.2-.23-.44-.43-.71-.6a4.52 4.52 0 0 0-1.6-.67 9 9 0 0 0-2.09-.22z" fill="url(#b)" transform="translate(0 -284.3)"/><path d="M6.81.14l-.45 5.82L9.1.52A5.82 5.82 0 0 0 6.8.14zM5.6.17c-.46.04-.93.05-1.32.14l-.51.16L6.3 5.94l-.04-.27.04.08-.04-.15zM9.52.7L6.49 5.94l3.63-4.9-.08-.07C9.88.87 9.7.8 9.52.7zm-6.6.14l-.26.13c-.19.12-.34.28-.5.42L6.2 5.92zm7.2.2L7.7 4.51l2.92-3.05c-.15-.15-.32-.3-.5-.42zM2 1.54l-.05.04c-.1.1-.17.24-.25.36L4.66 4.4zm9.11.55L6.45 6.06l5.2-1.6c.01-.07.05-.16.05-.24 0-.36-.04-.7-.11-1a3.73 3.73 0 0 0-.32-.9c-.04-.08-.11-.15-.16-.23zm-9.92.89l-.08.23a4.6 4.6 0 0 0 .14 2.53c.1.33.24.64.37.96l4.5-.67-3.2-1.96zm10.3 2.48l-4.97.68 4.44.88c.18-.41.36-.85.49-1.28.03-.1.02-.19.04-.28zm-4.97.74c-.03.03 1.96 1.25 3.7 2.25.22-.39.4-.65.65-1.19l.02-.06zm-.34.03L1.95 7.47c.27.57.5.94.71 1.32zm.31.03c-.03.08 1.44 1.8 2.92 3.52.1-.13.19-.22.28-.36l.25-.46zm-.1.05v.06l-1.9 4.98.17.23c.17.17.3.25.45.38l1.28-5.57.03.4-.84 5.57c.28.17.53.25.77.25s.5-.08.77-.25c.25-.16.53-.4.83-.7L6.46 6.52l-.01.1-.06-.25.01-.04v.03zm-.16.03L2.7 8.84c.1.16.26.48.32.58l.01.02zm.28.1l1.7 4.9c.31-.33.62-.77.94-1.2zM5.24 7.79l-1.78 2.23.15.2z" fill="#e2dbe3" fill-rule="evenodd" opacity=".46"/><path transform="translate(.33 -269.41) scale(.94859)" d="M9.15 290.55c.5.09.97-.24 1.05-.74l-.9-.16v-.1-.01c.5-.1.84-.57.75-1.06l-.9.16a2.89 2.89 0 0 0-.04-.11.91.91 0 0 0 .33-1.25l-.78.45a2.99 2.99 0 0 0-.07-.09.91.91 0 0 0-.12-1.28l-.58.69a2.93 2.93 0 0 0-.1-.07.91.91 0 0 0-.55-1.15l-.3.84-.13-.03a.91.91 0 0 0-.91-.88v.88l-.12.02a.91.91 0 0 0-1.17-.52l.3.84-.1.06a.91.91 0 0 0-1.27-.1l.57.69-.07.1a.91.91 0 0 0-1.24.34l.79.45-.04.1a.91.91 0 0 0-1.05.75l.9.16v.11a.91.91 0 0 0-.75 1.06l.91-.16.04.1v.01a.91.91 0 0 0-.34 1.25l.8-.47.08.08-.02.02a.91.91 0 0 0 .11 1.29l.61-.73.09.06-.01.02c-.17.48.07 1 .55 1.18l.32-.9.1.02a.91.91 0 0 0 .91.95v-.95l.1-.01.02.03c.17.47.7.72 1.17.55l-.33-.9.1-.04.01.02c.33.39.9.44 1.3.11l-.61-.72.06-.08.03.02c.44.25 1 .1 1.25-.34l-.81-.46.04-.1h.02zm-2.8-.37a.62.62 0 1 1 0-1.24.62.62 0 0 1 0 1.24z" fill="#1c1c24" filter="url(#c)" opacity=".8"/><path d="M6.35.09c-1.54 0-2.78.3-3.69.88A3.67 3.67 0 0 0 1 4.22c0 1.91 1.54 4.47 2.01 5.2.54.85 1.13 1.61 1.65 2.16.68.7 1.21 1.03 1.69 1.03s1.01-.33 1.69-1.03c.52-.55 1.11-1.31 1.65-2.16.47-.73 2-3.29 2-5.2 0-1.42-.57-2.55-1.65-3.25A6.75 6.75 0 0 0 6.35.1zm0 .04C6.91.15 7.44.2 7.9.3c.31.07.6.17.87.28a4.42 4.42 0 0 1 1.45.99 3.42 3.42 0 0 1 .84 1.63 4.61 4.61 0 0 1-.14 2.52c-.15.52-.36 1.05-.58 1.53-.44.97-.95 1.8-1.18 2.16-.54.85-1.13 1.61-1.65 2.16-.34.35-.64.6-.92.78a.96.96 0 0 1-.24.1.96.96 0 0 1-.24-.1 4.76 4.76 0 0 1-.92-.78 14.41 14.41 0 0 1-1.65-2.16 18.4 18.4 0 0 1-1.18-2.16c-.22-.48-.43-1-.58-1.53a4.6 4.6 0 0 1-.14-2.52 3.73 3.73 0 0 1 .84-1.63 3.65 3.65 0 0 1 1.45-1c.27-.1.56-.2.87-.27.46-.11 1-.16 1.55-.18z" opacity=".2"/><path d="M8.95 290.49c.47.08.9-.23.99-.7l-.85-.14v-.08-.02h.01a.85.85 0 0 0 .7-1l-.84.16a2.7 2.7 0 0 0-.04-.1c.4-.24.55-.76.31-1.17l-.73.42a2.8 2.8 0 0 0-.07-.08c.3-.36.25-.9-.1-1.2l-.54.65a2.6 2.6 0 0 0-.1-.06.85.85 0 0 0-.52-1.07l-.28.77-.11-.02a.85.85 0 0 0-.85-.83v.83l-.12.02a.85.85 0 0 0-1.08-.49l.29.78-.1.06a.85.85 0 0 0-1.19-.09l.54.64-.07.09a.85.85 0 0 0-1.15.32l.73.42-.04.1a.85.85 0 0 0-.98.7l.84.14v.1a.85.85 0 0 0-.7 1l.86-.16.03.1a.85.85 0 0 0-.32 1.17l.75-.44.07.08-.02.01c-.3.36-.25.9.1 1.2l.57-.67.09.05-.01.02c-.16.45.06.93.5 1.1l.3-.84.1.02v.03c0 .47.38.86.85.86v-.89c.03 0 .07 0 .1-.02v.04c.17.44.66.67 1.1.5l-.3-.82.08-.05.02.02c.3.36.84.41 1.2.1l-.56-.66.06-.08.02.02c.4.23.93.1 1.16-.32l-.75-.43.04-.1.01.01zm-2.6-.34a.58.58 0 1 1 0-1.16.58.58 0 0 1 0 1.16z" fill="url(#d)" transform="translate(0 -284.3)"/><path d="M8.95 6.19c.47.08.9-.23.99-.7l-.85-.14v-.08-.02h.01a.85.85 0 0 0 .7-1l-.84.16a2.7 2.7 0 0 0-.04-.1c.4-.24.55-.76.31-1.17l-.73.42a2.8 2.8 0 0 0-.07-.08c.3-.36.25-.9-.1-1.2l-.54.65a2.6 2.6 0 0 0-.1-.06.85.85 0 0 0-.52-1.07l-.28.77-.11-.02c0-.3-.18-.57-.43-.71v2.85a.58.58 0 0 1 0 1.16v2.9c.13.08.27.12.42.12v-.89c.03 0 .07 0 .1-.02V8c.17.44.66.67 1.1.5l-.3-.82.08-.05.02.02c.3.36.84.41 1.2.1L8.4 7.1 8.47 7l.02.02c.4.23.93.1 1.16-.32l-.75-.43.04-.1.01.01z" fill="#57565c" opacity=".2"/><path d="M6.35 287.18a2.38 2.38 0 1 0 0 4.76 2.38 2.38 0 0 0 0-4.76zm0 3.54a1.16 1.16 0 1 1 0-2.32 1.16 1.16 0 0 1 0 2.32z" fill="url(#e)" transform="translate(0 -284.3)"/><path d="M6.35 288.37a1.19 1.19 0 1 0 0 2.38 1.19 1.19 0 0 0 0-2.38zm0 1.77a.58.58 0 1 1 0-1.16.58.58 0 0 1 0 1.16z" fill="url(#f)" transform="translate(0 -284.3)"/><path d="M7.54 5.26c0-.66-.53-1.19-1.19-1.19v.61a.58.58 0 0 1 0 1.16v.61a1.2 1.2 0 0 0 1.19-1.19z" fill="#3e3e42" opacity=".2"/><path d="M8.95 290.49c.47.08.9-.23.99-.7l-.85-.14v-.08-.02h.01a.85.85 0 0 0 .7-1l-.84.16a2.7 2.7 0 0 0-.04-.1c.4-.24.55-.76.31-1.17l-.73.42a2.82 2.82 0 0 0-.07-.08c.3-.36.25-.9-.1-1.2l-.54.65a2.6 2.6 0 0 0-.1-.06.85.85 0 0 0-.52-1.07l-.28.77-.11-.02a.85.85 0 0 0-.85-.83v.83l-.12.02a.85.85 0 0 0-1.08-.49l.29.78-.1.06a.85.85 0 0 0-1.19-.09l.54.64-.07.09a.85.85 0 0 0-1.15.32l.73.42-.04.1a.85.85 0 0 0-.98.7l.84.14v.1a.85.85 0 0 0-.7 1l.86-.16.03.1a.85.85 0 0 0-.32 1.17l.75-.44.07.08-.02.01c-.3.36-.25.9.1 1.2l.57-.67.09.05-.01.02c-.16.45.06.93.5 1.1l.3-.84.1.02v.03c0 .47.38.86.85.86v-.89c.03 0 .07 0 .1-.02v.04c.17.44.66.67 1.1.5l-.3-.82.08-.05.02.02c.3.36.84.41 1.2.1l-.56-.66.06-.08.02.02c.4.23.93.1 1.16-.32l-.75-.43.04-.1.01.01zm-2.6-.34a.58.58 0 1 1 0-1.16.58.58 0 0 1 0 1.16z" fill="url(#g)" opacity=".6" transform="translate(0 -284.3)"/></svg>

<?xml version="1.0" encoding="UTF-8" standalone="no"?>
<svg
   xmlns:dc="http://purl.org/dc/elements/1.1/"
   xmlns:cc="http://creativecommons.org/ns#"
   xmlns:rdf="http://www.w3.org/1999/02/22-rdf-syntax-ns#"
   xmlns:svg="http://www.w3.org/2000/svg"
   xmlns="http://www.w3.org/2000/svg"
   xmlns:xlink="http://www.w3.org/1999/xlink"
   xmlns:sodipodi="http://sodipodi.sourceforge.net/DTD/sodipodi-0.dtd"
   xmlns:inkscape="http://www.inkscape.org/namespaces/inkscape"
   width="48"
   height="48"
   viewBox="0 0 12.7 12.7"
   version="1.1"
   id="svg53"
   sodipodi:docname="gnome-do.svg"
   inkscape:version="0.92.4 (5da689c313, 2019-01-14)">
  <metadata
     id="metadata57">
    <rdf:RDF>
      <cc:Work
         rdf:about="">
        <dc:format>image/svg+xml</dc:format>
        <dc:type
           rdf:resource="http://purl.org/dc/dcmitype/StillImage" />
        <dc:title></dc:title>
      </cc:Work>
    </rdf:RDF>
  </metadata>
  <sodipodi:namedview
     pagecolor="#ffffff"
     bordercolor="#666666"
     borderopacity="1"
     objecttolerance="10"
     gridtolerance="10"
     guidetolerance="10"
     inkscape:pageopacity="0"
     inkscape:pageshadow="2"
     inkscape:window-width="1112"
     inkscape:window-height="480"
     id="namedview55"
     showgrid="false"
     inkscape:zoom="4.9166667"
     inkscape:cx="2.1355932"
     inkscape:cy="24"
     inkscape:window-x="0"
     inkscape:window-y="25"
     inkscape:window-maximized="0"
     inkscape:current-layer="svg53" />
  <defs
     id="defs31">
    <linearGradient
       id="a">
      <stop
         stop-color="#4d4d4d"
         offset="0"
         id="stop2" />
      <stop
         stop-color="#ccc"
         offset="1"
         id="stop4" />
    </linearGradient>
    <radialGradient
       id="d"
       cx="6.35"
       cy="289.59"
       r="3.85"
       gradientTransform="matrix(0.93136,0,0,0.92638,0.44,-262.98)"
       gradientUnits="userSpaceOnUse"
       xlink:href="#a" />
    <radialGradient
       id="f"
       cx="6.35"
       cy="289.56"
       r="1.28"
       gradientTransform="matrix(0.93136,0,0,0.93135,0.44,-264.42)"
       gradientUnits="userSpaceOnUse"
       xlink:href="#a" />
    <radialGradient
       id="b"
       cx="12.01"
       cy="13.2"
       r="20"
       gradientTransform="matrix(0,0.55623,-0.80234,0,13.13,-4.01)"
       gradientUnits="userSpaceOnUse">
      <stop
         stop-color="#de87cd"
         offset="0"
         id="stop9" />
      <stop
         stop-color="#a02c89"
         offset=".26"
         id="stop11" />
      <stop
         stop-color="#c837ab"
         offset=".7"
         id="stop13" />
      <stop
         stop-color="#de87cd"
         offset="1"
         id="stop15" />
    </radialGradient>
    <radialGradient
       id="e"
       cx="6.35"
       cy="289.56"
       r="2.55"
       gradientTransform="matrix(0.93136,0,0,0.93136,0.44,-264.42)"
       gradientUnits="userSpaceOnUse">
      <stop
         stop-color="#e6e6e6"
         offset="0"
         id="stop18" />
      <stop
         stop-color="#e6e6e6"
         stop-opacity="0"
         offset="1"
         id="stop20" />
    </radialGradient>
    <radialGradient
       id="g"
       cx="6.52"
       cy="287.7"
       r="3.85"
       gradientTransform="matrix(1.6127,0.35322,-0.22426,1.0239,62,-292.79)"
       gradientUnits="userSpaceOnUse">
      <stop
         stop-color="#f5ffff"
         offset="0"
         id="stop23" />
      <stop
         stop-color="#f3ffff"
         stop-opacity="0"
         offset="1"
         id="stop25" />
    </radialGradient>
    <filter
       id="c"
       x="-.17"
       y="-.17"
       width="1.34"
       height="1.34"
       color-interpolation-filters="sRGB">
      <feGaussianBlur
         stdDeviation=".54"
         id="feGaussianBlur28" />
    </filter>
  </defs>
  <path
     d="M 6.35,0.09 A 9,9 0 0 0 4.27,0.31 5.82,5.82 0 0 0 2.67,0.97 3.66,3.66 0 0 0 1.43,2.33 C 1.29,2.6 1.18,2.89 1.11,3.21 a 4.68,4.68 0 0 0 0.14,2.52 c 0.15,0.52 0.36,1.05 0.58,1.53 0.44,0.97 0.95,1.8 1.18,2.16 0.54,0.85 1.13,1.61 1.65,2.16 0.34,0.35 0.64,0.6 0.92,0.78 0.28,0.18 0.53,0.25 0.77,0.25 0.24,0 0.5,-0.08 0.77,-0.25 C 7.4,12.19 7.7,11.93 8.04,11.58 8.56,11.03 9.15,10.27 9.69,9.42 9.92,9.05 10.43,8.23 10.87,7.26 11.09,6.78 11.3,6.26 11.45,5.73 A 4.61,4.61 0 0 0 11.59,3.21 3.73,3.73 0 0 0 10.75,1.58 C 10.55,1.35 10.31,1.15 10.04,0.98 A 4.52,4.52 0 0 0 8.44,0.31 9,9 0 0 0 6.35,0.09 Z"
     id="path33"
     style="fill:url(#b)"
     inkscape:connector-curvature="0" />
  <path
     d="M 6.81,0.14 6.36,5.96 9.1,0.52 A 5.82,5.82 0 0 0 6.8,0.14 Z M 5.6,0.17 C 5.14,0.21 4.67,0.22 4.28,0.31 L 3.77,0.47 6.3,5.94 6.26,5.67 6.3,5.75 6.26,5.6 Z M 9.52,0.7 6.49,5.94 10.12,1.04 10.04,0.97 C 9.88,0.87 9.7,0.8 9.52,0.7 Z M 2.92,0.84 2.66,0.97 C 2.47,1.09 2.32,1.25 2.16,1.39 L 6.2,5.92 Z m 7.2,0.2 L 7.7,4.51 10.62,1.46 C 10.47,1.31 10.3,1.16 10.12,1.04 Z M 2,1.54 1.95,1.58 C 1.85,1.68 1.78,1.82 1.7,1.94 L 4.66,4.4 Z m 9.11,0.55 -4.66,3.97 5.2,-1.6 C 11.66,4.39 11.7,4.3 11.7,4.22 c 0,-0.36 -0.04,-0.7 -0.11,-1 A 3.73,3.73 0 0 0 11.27,2.32 C 11.23,2.24 11.16,2.17 11.11,2.09 Z M 1.19,2.98 1.11,3.21 A 4.6,4.6 0 0 0 1.25,5.74 C 1.35,6.07 1.49,6.38 1.62,6.7 L 6.12,6.03 2.92,4.07 Z m 10.3,2.48 -4.97,0.68 4.44,0.88 c 0.18,-0.41 0.36,-0.85 0.49,-1.28 0.03,-0.1 0.02,-0.19 0.04,-0.28 z M 6.52,6.2 c -0.03,0.03 1.96,1.25 3.7,2.25 0.22,-0.39 0.4,-0.65 0.65,-1.19 L 10.89,7.2 Z M 6.18,6.23 1.95,7.47 c 0.27,0.57 0.5,0.94 0.71,1.32 z M 6.49,6.26 C 6.46,6.34 7.93,8.06 9.41,9.78 9.51,9.65 9.6,9.56 9.69,9.42 L 9.94,8.96 Z m -0.1,0.05 v 0.06 l -1.9,4.98 0.17,0.23 c 0.17,0.17 0.3,0.25 0.45,0.38 l 1.28,-5.57 0.03,0.4 -0.84,5.57 c 0.28,0.17 0.53,0.25 0.77,0.25 0.24,0 0.5,-0.08 0.77,-0.25 0.25,-0.16 0.53,-0.4 0.83,-0.7 L 6.46,6.52 6.45,6.62 6.39,6.37 6.4,6.33 V 6.36 Z M 6.23,6.34 2.7,8.84 C 2.8,9 2.96,9.32 3.02,9.42 l 0.01,0.02 z m 0.28,0.1 1.7,4.9 c 0.31,-0.33 0.62,-0.77 0.94,-1.2 z m -1.27,1.35 -1.78,2.23 0.15,0.2 z"
     id="path35"
     inkscape:connector-curvature="0"
     style="opacity:0.46000001;fill:#e2dbe3;fill-rule:evenodd" />
  <path
     transform="matrix(0.94859,0,0,0.94859,0.33,-269.41)"
     d="m 9.15,290.55 c 0.5,0.09 0.97,-0.24 1.05,-0.74 l -0.9,-0.16 v -0.1 -0.01 c 0.5,-0.1 0.84,-0.57 0.75,-1.06 l -0.9,0.16 a 2.89,2.89 0 0 0 -0.04,-0.11 0.91,0.91 0 0 0 0.33,-1.25 l -0.78,0.45 a 2.99,2.99 0 0 0 -0.07,-0.09 0.91,0.91 0 0 0 -0.12,-1.28 l -0.58,0.69 a 2.93,2.93 0 0 0 -0.1,-0.07 0.91,0.91 0 0 0 -0.55,-1.15 l -0.3,0.84 -0.13,-0.03 A 0.91,0.91 0 0 0 5.9,285.76 v 0.88 l -0.12,0.02 a 0.91,0.91 0 0 0 -1.17,-0.52 l 0.3,0.84 -0.1,0.06 a 0.91,0.91 0 0 0 -1.27,-0.1 l 0.57,0.69 -0.07,0.1 a 0.91,0.91 0 0 0 -1.24,0.34 l 0.79,0.45 -0.04,0.1 a 0.91,0.91 0 0 0 -1.05,0.75 l 0.9,0.16 v 0.11 a 0.91,0.91 0 0 0 -0.75,1.06 l 0.91,-0.16 0.04,0.1 v 0.01 a 0.91,0.91 0 0 0 -0.34,1.25 l 0.8,-0.47 0.08,0.08 -0.02,0.02 a 0.91,0.91 0 0 0 0.11,1.29 l 0.61,-0.73 0.09,0.06 -0.01,0.02 c -0.17,0.48 0.07,1 0.55,1.18 l 0.32,-0.9 0.1,0.02 a 0.91,0.91 0 0 0 0.91,0.95 v -0.95 l 0.1,-0.01 0.02,0.03 c 0.17,0.47 0.7,0.72 1.17,0.55 l -0.33,-0.9 0.1,-0.04 0.01,0.02 c 0.33,0.39 0.9,0.44 1.3,0.11 l -0.61,-0.72 0.06,-0.08 0.03,0.02 c 0.44,0.25 1,0.1 1.25,-0.34 l -0.81,-0.46 0.04,-0.1 z m -2.8,-0.37 a 0.62,0.62 0 1 1 0,-1.24 0.62,0.62 0 0 1 0,1.24 z"
     id="path37"
     inkscape:connector-curvature="0"
     style="opacity:0.8;fill:#1c1c24;filter:url(#c)" />
  <path
     d="m 6.35,0.09 c -1.54,0 -2.78,0.3 -3.69,0.88 A 3.67,3.67 0 0 0 1,4.22 c 0,1.91 1.54,4.47 2.01,5.2 0.54,0.85 1.13,1.61 1.65,2.16 0.68,0.7 1.21,1.03 1.69,1.03 0.48,0 1.01,-0.33 1.69,-1.03 0.52,-0.55 1.11,-1.31 1.65,-2.16 0.47,-0.73 2,-3.29 2,-5.2 0,-1.42 -0.57,-2.55 -1.65,-3.25 A 6.75,6.75 0 0 0 6.35,0.1 Z m 0,0.04 C 6.91,0.15 7.44,0.2 7.9,0.3 8.21,0.37 8.5,0.47 8.77,0.58 a 4.42,4.42 0 0 1 1.45,0.99 3.42,3.42 0 0 1 0.84,1.63 4.61,4.61 0 0 1 -0.14,2.52 C 10.77,6.24 10.56,6.77 10.34,7.25 9.9,8.22 9.39,9.05 9.16,9.41 8.62,10.26 8.03,11.02 7.51,11.57 7.17,11.92 6.87,12.17 6.59,12.35 A 0.96,0.96 0 0 1 6.35,12.45 0.96,0.96 0 0 1 6.11,12.35 4.76,4.76 0 0 1 5.19,11.57 14.41,14.41 0 0 1 3.54,9.41 18.4,18.4 0 0 1 2.36,7.25 C 2.14,6.77 1.93,6.25 1.78,5.72 A 4.6,4.6 0 0 1 1.64,3.2 3.73,3.73 0 0 1 2.48,1.57 3.65,3.65 0 0 1 3.93,0.57 C 4.2,0.47 4.49,0.37 4.8,0.3 5.26,0.19 5.8,0.14 6.35,0.12 Z"
     id="path39"
     inkscape:connector-curvature="0"
     style="opacity:0.2" />
  <path
     d="M 8.95,6.19 C 9.42,6.27 9.85,5.96 9.94,5.49 L 9.09,5.35 V 5.27 5.25 H 9.1 a 0.85,0.85 0 0 0 0.7,-1 L 8.96,4.41 A 2.7,2.7 0 0 0 8.92,4.31 C 9.32,4.07 9.47,3.55 9.23,3.14 L 8.5,3.56 A 2.8,2.8 0 0 0 8.43,3.48 C 8.73,3.12 8.68,2.58 8.33,2.28 L 7.79,2.93 A 2.6,2.6 0 0 0 7.69,2.87 0.85,0.85 0 0 0 7.17,1.8 L 6.89,2.57 6.78,2.55 A 0.85,0.85 0 0 0 5.93,1.72 V 2.55 L 5.81,2.57 A 0.85,0.85 0 0 0 4.73,2.08 L 5.02,2.86 4.92,2.92 A 0.85,0.85 0 0 0 3.73,2.83 L 4.27,3.47 4.2,3.56 A 0.85,0.85 0 0 0 3.05,3.88 L 3.78,4.3 3.74,4.4 A 0.85,0.85 0 0 0 2.76,5.1 L 3.6,5.24 v 0.1 a 0.85,0.85 0 0 0 -0.7,1 L 3.76,6.18 3.79,6.28 A 0.85,0.85 0 0 0 3.47,7.45 L 4.22,7.01 4.29,7.09 4.27,7.1 C 3.97,7.46 4.02,8 4.37,8.3 L 4.94,7.63 5.03,7.68 5.02,7.7 c -0.16,0.45 0.06,0.93 0.5,1.1 l 0.3,-0.84 0.1,0.02 v 0.03 c 0,0.47 0.38,0.86 0.85,0.86 V 7.98 c 0.03,0 0.07,0 0.1,-0.02 V 8 c 0.17,0.44 0.66,0.67 1.1,0.5 L 7.67,7.68 7.75,7.63 7.77,7.65 c 0.3,0.36 0.84,0.41 1.2,0.1 L 8.41,7.09 8.47,7.01 8.49,7.03 c 0.4,0.23 0.93,0.1 1.16,-0.32 L 8.9,6.28 8.94,6.18 Z M 6.35,5.85 a 0.58,0.58 0 1 1 0,-1.16 0.58,0.58 0 0 1 0,1.16 z"
     id="path41"
     style="fill:url(#d)"
     inkscape:connector-curvature="0" />
  <path
     d="M 8.95,6.19 C 9.42,6.27 9.85,5.96 9.94,5.49 L 9.09,5.35 V 5.27 5.25 H 9.1 a 0.85,0.85 0 0 0 0.7,-1 L 8.96,4.41 A 2.7,2.7 0 0 0 8.92,4.31 C 9.32,4.07 9.47,3.55 9.23,3.14 L 8.5,3.56 A 2.8,2.8 0 0 0 8.43,3.48 C 8.73,3.12 8.68,2.58 8.33,2.28 L 7.79,2.93 A 2.6,2.6 0 0 0 7.69,2.87 0.85,0.85 0 0 0 7.17,1.8 L 6.89,2.57 6.78,2.55 C 6.78,2.25 6.6,1.98 6.35,1.84 v 2.85 a 0.58,0.58 0 0 1 0,1.16 v 2.9 C 6.48,8.83 6.62,8.87 6.77,8.87 V 7.98 c 0.03,0 0.07,0 0.1,-0.02 V 8 c 0.17,0.44 0.66,0.67 1.1,0.5 L 7.67,7.68 7.75,7.63 7.77,7.65 c 0.3,0.36 0.84,0.41 1.2,0.1 L 8.4,7.1 8.47,7 8.49,7.02 C 8.89,7.25 9.42,7.12 9.65,6.7 L 8.9,6.27 8.94,6.17 8.95,6.18 Z"
     id="path43"
     inkscape:connector-curvature="0"
     style="opacity:0.2;fill:#57565c" />
  <path
     d="m 6.35,2.88 a 2.38,2.38 0 1 0 0,4.76 2.38,2.38 0 0 0 0,-4.76 z m 0,3.54 a 1.16,1.16 0 1 1 0,-2.32 1.16,1.16 0 0 1 0,2.32 z"
     id="path45"
     style="fill:url(#e)"
     inkscape:connector-curvature="0" />
  <path
     d="m 6.35,4.07 a 1.19,1.19 0 1 0 0,2.38 1.19,1.19 0 0 0 0,-2.38 z m 0,1.77 a 0.58,0.58 0 1 1 0,-1.16 0.58,0.58 0 0 1 0,1.16 z"
     id="path47"
     style="fill:url(#f)"
     inkscape:connector-curvature="0" />
  <path
     d="M 7.54,5.26 C 7.54,4.6 7.01,4.07 6.35,4.07 v 0.61 a 0.58,0.58 0 0 1 0,1.16 V 6.45 A 1.2,1.2 0 0 0 7.54,5.26 Z"
     id="path49"
     inkscape:connector-curvature="0"
     style="opacity:0.2;fill:#3e3e42" />
  <path
     d="M 8.95,6.19 C 9.42,6.27 9.85,5.96 9.94,5.49 L 9.09,5.35 V 5.27 5.25 H 9.1 a 0.85,0.85 0 0 0 0.7,-1 L 8.96,4.41 A 2.7,2.7 0 0 0 8.92,4.31 C 9.32,4.07 9.47,3.55 9.23,3.14 L 8.5,3.56 A 2.82,2.82 0 0 0 8.43,3.48 C 8.73,3.12 8.68,2.58 8.33,2.28 L 7.79,2.93 A 2.6,2.6 0 0 0 7.69,2.87 0.85,0.85 0 0 0 7.17,1.8 L 6.89,2.57 6.78,2.55 A 0.85,0.85 0 0 0 5.93,1.72 V 2.55 L 5.81,2.57 A 0.85,0.85 0 0 0 4.73,2.08 L 5.02,2.86 4.92,2.92 A 0.85,0.85 0 0 0 3.73,2.83 L 4.27,3.47 4.2,3.56 A 0.85,0.85 0 0 0 3.05,3.88 L 3.78,4.3 3.74,4.4 A 0.85,0.85 0 0 0 2.76,5.1 L 3.6,5.24 v 0.1 a 0.85,0.85 0 0 0 -0.7,1 L 3.76,6.18 3.79,6.28 A 0.85,0.85 0 0 0 3.47,7.45 L 4.22,7.01 4.29,7.09 4.27,7.1 C 3.97,7.46 4.02,8 4.37,8.3 L 4.94,7.63 5.03,7.68 5.02,7.7 c -0.16,0.45 0.06,0.93 0.5,1.1 l 0.3,-0.84 0.1,0.02 v 0.03 c 0,0.47 0.38,0.86 0.85,0.86 V 7.98 c 0.03,0 0.07,0 0.1,-0.02 V 8 c 0.17,0.44 0.66,0.67 1.1,0.5 L 7.67,7.68 7.75,7.63 7.77,7.65 c 0.3,0.36 0.84,0.41 1.2,0.1 L 8.41,7.09 8.47,7.01 8.49,7.03 c 0.4,0.23 0.93,0.1 1.16,-0.32 L 8.9,6.28 8.94,6.18 Z M 6.35,5.85 a 0.58,0.58 0 1 1 0,-1.16 0.58,0.58 0 0 1 0,1.16 z"
     id="path51"
     style="opacity:0.6;fill:url(#g)"
     inkscape:connector-curvature="0" />
</svg>
